X:905
T:Sweeney's Dream
R:reel
Z:transcribed by Dave Marshall
M:C|
K:D
|: d~F3 ABdf | gfeg fdBc | d~F3 ABdB | AFDF EFD2 :|
| f~a3 afdf | gfed cdeg | f~a3 bfaf | gfeg fdde |
f~a3 bfaf | gfeg fdBc | d~F3 ABdf | gfeg f2ec |
